symbols/web/24mp/materialsymbolsrounded/24mp_wght100_20px.svg

<svg xmlns="http://www.w3.org/2000/svg" height="20" width="20"><path d="M6.396 9.271h2.292q.104 0 .187-.083.083-.084.083-.23 0-.125-.083-.208-.083-.083-.208-.083H6.396V7.396h1.958q.25 0 .427-.167t.177-.417v-1.25q0-.25-.177-.427t-.427-.177H6.083q-.104 0-.198.084-.093.083-.093.208 0 .125.093.219.094.093.219.093h2.25v1.271H6.396q-.25 0-.427.177-.177.178-.177.428v1.229q0 .229.187.416.188.188.417.188Zm6.666 0q.126 0 .209-.094.083-.094.083-.219v-.916h.75q.104 0 .188-.084.083-.083.083-.229 0-.125-.083-.208-.084-.083-.209-.083h-.729V5.229q0-.104-.083-.187-.083-.084-.209-.084-.124 0-.218.084-.094.083-.094.208v2.188h-1.521V5.229q0-.104-.083-.187-.084-.084-.208-.084-.126 0-.219.084-.094.083-.094.208v2.188q0 .229.187.416.188.188.417.188h1.521v.937q0 .125.083.209.084.083.229.083Zm-8.145 7.146q-.584 0-.959-.375t-.375-.959V4.917q0-.584.375-.959t.959-.375h10.166q.584 0 .959.375t.375.959v10.166q0 .584-.375.959t-.959.375Zm0-.667h10.166q.292 0 .479-.188.188-.187.188-.479V4.917q0-.292-.188-.479-.187-.188-.479-.188H4.917q-.292 0-.479.188-.188.187-.188.479v10.166q0 .292.188.479.187.188.479.188Zm.771-.729q.104 0 .197-.094.094-.094.094-.219v-3.396h1.459V13.5q0 .125.083.208.083.084.229.084.104 0 .198-.094.094-.094.094-.219v-2.167H9.5v3.417q0 .125.083.209.084.083.229.083.105 0 .198-.094.094-.094.094-.219v-3.479q0-.229-.135-.375-.136-.146-.386-.146H5.896q-.229 0-.375.146t-.146.375v3.5q0 .125.083.209.084.083.23.083Zm6.124 0q.105 0 .198-.094.094-.094.094-.219v-.916h2q.25 0 .386-.136.135-.135.135-.364v-2.063q0-.229-.135-.375-.136-.146-.386-.146h-2.083q-.209 0-.365.146t-.156.375v3.5q0 .125.083.209.084.083.229.083Zm.292-3.709h1.917v1.876h-1.917ZM4.25 4.917V4.25v11.5-.667Z"/></svg>

<svg xmlns="http://www.w3.org/2000/svg" height="20" width="20"><path d="M6.396 9.271H8.688Q8.792 9.271 8.875 9.188Q8.958 9.104 8.958 8.958Q8.958 8.833 8.875 8.75Q8.792 8.667 8.667 8.667H6.396V7.396H8.354Q8.604 7.396 8.781 7.229Q8.958 7.062 8.958 6.812V5.562Q8.958 5.312 8.781 5.135Q8.604 4.958 8.354 4.958H6.083Q5.979 4.958 5.885 5.042Q5.792 5.125 5.792 5.25Q5.792 5.375 5.885 5.469Q5.979 5.562 6.104 5.562H8.354V6.833H6.396Q6.146 6.833 5.969 7.01Q5.792 7.188 5.792 7.438V8.667Q5.792 8.896 5.979 9.083Q6.167 9.271 6.396 9.271ZM13.062 9.271Q13.188 9.271 13.271 9.177Q13.354 9.083 13.354 8.958V8.042H14.104Q14.208 8.042 14.292 7.958Q14.375 7.875 14.375 7.729Q14.375 7.604 14.292 7.521Q14.208 7.438 14.083 7.438H13.354V5.229Q13.354 5.125 13.271 5.042Q13.188 4.958 13.062 4.958Q12.938 4.958 12.844 5.042Q12.75 5.125 12.75 5.25V7.438H11.229V5.229Q11.229 5.125 11.146 5.042Q11.062 4.958 10.938 4.958Q10.812 4.958 10.719 5.042Q10.625 5.125 10.625 5.25V7.438Q10.625 7.667 10.812 7.854Q11 8.042 11.229 8.042H12.75V8.979Q12.75 9.104 12.833 9.188Q12.917 9.271 13.062 9.271ZM4.917 16.417Q4.333 16.417 3.958 16.042Q3.583 15.667 3.583 15.083V4.917Q3.583 4.333 3.958 3.958Q4.333 3.583 4.917 3.583H15.083Q15.667 3.583 16.042 3.958Q16.417 4.333 16.417 4.917V15.083Q16.417 15.667 16.042 16.042Q15.667 16.417 15.083 16.417ZM4.917 15.75H15.083Q15.375 15.75 15.562 15.562Q15.75 15.375 15.75 15.083V4.917Q15.75 4.625 15.562 4.438Q15.375 4.25 15.083 4.25H4.917Q4.625 4.25 4.438 4.438Q4.25 4.625 4.25 4.917V15.083Q4.25 15.375 4.438 15.562Q4.625 15.75 4.917 15.75ZM5.688 15.021Q5.792 15.021 5.885 14.927Q5.979 14.833 5.979 14.708V11.312H7.438V13.5Q7.438 13.625 7.521 13.708Q7.604 13.792 7.75 13.792Q7.854 13.792 7.948 13.698Q8.042 13.604 8.042 13.479V11.312H9.5V14.729Q9.5 14.854 9.583 14.938Q9.667 15.021 9.812 15.021Q9.917 15.021 10.01 14.927Q10.104 14.833 10.104 14.708V11.229Q10.104 11 9.969 10.854Q9.833 10.708 9.583 10.708H5.896Q5.667 10.708 5.521 10.854Q5.375 11 5.375 11.229V14.729Q5.375 14.854 5.458 14.938Q5.542 15.021 5.688 15.021ZM11.812 15.021Q11.917 15.021 12.01 14.927Q12.104 14.833 12.104 14.708V13.792H14.104Q14.354 13.792 14.49 13.656Q14.625 13.521 14.625 13.292V11.229Q14.625 11 14.49 10.854Q14.354 10.708 14.104 10.708H12.021Q11.812 10.708 11.656 10.854Q11.5 11 11.5 11.229V14.729Q11.5 14.854 11.583 14.938Q11.667 15.021 11.812 15.021ZM12.104 11.312H14.021V13.188H12.104ZM4.25 4.917Q4.25 4.625 4.25 4.438Q4.25 4.25 4.25 4.25Q4.25 4.25 4.25 4.438Q4.25 4.625 4.25 4.917V15.083Q4.25 15.375 4.25 15.562Q4.25 15.75 4.25 15.75Q4.25 15.75 4.25 15.562Q4.25 15.375 4.25 15.083Z"/></svg>
